src/assets/fractions.svg

<svg viewBox="0 0 3366 325" fill="none" xmlns="http://www.w3.org/2000/svg">
<path d="M298.35 4.99998C301.65 4.99998 304.5 6.19998 306.9 8.59999C309.3 11 310.5 13.85 310.5 17.15V85.55C310.5 88.85 309.3 91.7 306.9 94.1C304.5 96.5 301.65 97.7 298.35 97.7H121.5V126.5H269.1C272.4 126.5 275.25 127.7 277.65 130.1C280.05 132.5 281.25 135.35 281.25 138.65V206.6C281.25 209.9 280.05 212.75 277.65 215.15C275.25 217.55 272.4 218.75 269.1 218.75H121.5V307.85C121.5 311.15 120.3 314 117.9 316.4C115.5 318.8 112.65 320 109.35 320H12.15C8.85 320 6 318.8 3.6 316.4C1.2 314 6.70552e-07 311.15 6.70552e-07 307.85V17.15C6.70552e-07 13.85 1.2 11 3.6 8.59999C6 6.19998 8.85 4.99998 12.15 4.99998H298.35ZM707.224 306.05C707.824 307.25 708.124 308.6 708.124 310.1C708.124 312.8 707.074 315.2 704.974 317.3C703.174 319.1 700.924 320 698.224 320H596.074C591.874 320 587.974 318.95 584.374 316.85C581.074 314.75 578.674 312.05 577.174 308.75L537.574 219.65H499.774V307.85C499.774 311.15 498.574 314 496.174 316.4C493.774 318.8 490.924 320 487.624 320H390.424C387.124 320 384.274 318.8 381.874 316.4C379.474 314 378.274 311.15 378.274 307.85V17.15C378.274 13.85 379.474 11 381.874 8.59999C384.274 6.19998 387.124 4.99998 390.424 4.99998H565.474C592.474 4.99998 616.024 9.34999 636.124 18.05C656.524 26.75 672.124 39.35 682.924 55.85C693.724 72.35 699.124 91.7 699.124 113.9C699.124 154.7 683.374 184.25 651.874 202.55L707.224 306.05ZM556.024 136.4C562.624 136.4 567.724 134.3 571.324 130.1C574.924 125.6 576.724 120.05 576.724 113.45C576.724 106.85 574.924 101.15 571.324 96.35C568.024 91.25 562.924 88.7 556.024 88.7H499.774V136.4H556.024ZM846.098 304.7C842.198 314.9 835.448 320 825.848 320H740.798C738.098 320 735.698 319.1 733.598 317.3C731.798 315.2 730.898 312.8 730.898 310.1L731.348 307.4L829.448 19.85C830.648 15.95 832.898 12.5 836.198 9.49997C839.498 6.49998 843.998 4.99998 849.698 4.99998H974.798C980.498 4.99998 984.998 6.49998 988.298 9.49997C991.598 12.5 993.848 15.95 995.048 19.85L1093.15 307.4L1093.6 310.1C1093.6 312.8 1092.55 315.2 1090.45 317.3C1088.65 319.1 1086.4 320 1083.7 320H998.648C989.048 320 982.298 314.9 978.398 304.7L967.148 273.2H857.348L846.098 304.7ZM912.248 91.85L880.298 185.45H944.198L912.248 91.85ZM1251.82 198.5C1251.82 210.8 1255.87 220.25 1263.97 226.85C1272.37 233.45 1283.62 236.75 1297.72 236.75C1310.32 236.75 1319.62 234.65 1325.62 230.45C1331.62 226.25 1336.72 219.95 1340.92 211.55C1344.82 203.75 1350.07 199.85 1356.67 199.85H1453.87C1456.57 199.85 1458.82 200.9 1460.62 203C1462.72 204.8 1463.77 207.05 1463.77 209.75C1463.77 228.05 1457.62 246.05 1445.32 263.75C1433.02 281.15 1414.27 295.7 1389.07 307.4C1364.17 318.8 1333.72 324.5 1297.72 324.5C1265.62 324.5 1236.97 319.7 1211.77 310.1C1186.87 300.2 1167.07 285.2 1152.37 265.1C1137.67 244.7 1130.32 219.35 1130.32 189.05V135.95C1130.32 105.65 1137.67 80.45 1152.37 60.35C1167.07 39.95 1186.87 24.95 1211.77 15.35C1236.97 5.44998 1265.62 0.499983 1297.72 0.499983C1333.72 0.499983 1364.17 6.34999 1389.07 18.05C1414.27 29.45 1433.02 44 1445.32 61.7C1457.62 79.1 1463.77 96.95 1463.77 115.25C1463.77 117.95 1462.72 120.35 1460.62 122.45C1458.82 124.25 1456.57 125.15 1453.87 125.15H1356.67C1350.07 125.15 1344.82 121.25 1340.92 113.45C1336.72 105.05 1331.62 98.75 1325.62 94.55C1319.62 90.35 1310.32 88.25 1297.72 88.25C1283.62 88.25 1272.37 91.55 1263.97 98.15C1255.87 104.75 1251.82 114.2 1251.82 126.5V198.5ZM1830.8 4.99998C1834.1 4.99998 1836.95 6.19998 1839.35 8.59999C1841.75 11 1842.95 13.85 1842.95 17.15V89.6C1842.95 92.9 1841.75 95.75 1839.35 98.15C1836.95 100.55 1834.1 101.75 1830.8 101.75H1734.05V307.85C1734.05 311.15 1732.85 314 1730.45 316.4C1728.05 318.8 1725.2 320 1721.9 320H1629.2C1625.9 320 1623.05 318.8 1620.65 316.4C1618.25 314 1617.05 311.15 1617.05 307.85V101.75H1520.3C1517 101.75 1514.15 100.55 1511.75 98.15C1509.35 95.75 1508.15 92.9 1508.15 89.6V17.15C1508.15 13.85 1509.35 11 1511.75 8.59999C1514.15 6.19998 1517 4.99998 1520.3 4.99998H1830.8ZM2119.07 227.75H2200.52C2203.82 227.75 2206.67 228.95 2209.07 231.35C2211.47 233.75 2212.67 236.6 2212.67 239.9V307.85C2212.67 311.15 2211.47 314 2209.07 316.4C2206.67 318.8 2203.82 320 2200.52 320H1915.22C1911.92 320 1909.07 318.8 1906.67 316.4C1904.27 314 1903.07 311.15 1903.07 307.85V239.9C1903.07 236.6 1904.27 233.75 1906.67 231.35C1909.07 228.95 1911.92 227.75 1915.22 227.75H1997.57V97.25H1915.22C1911.92 97.25 1909.07 96.05 1906.67 93.65C1904.27 91.25 1903.07 88.4 1903.07 85.1V17.15C1903.07 13.85 1904.27 11 1906.67 8.59999C1909.07 6.19998 1911.92 4.99998 1915.22 4.99998H2200.52C2203.82 4.99998 2206.67 6.19998 2209.07 8.59999C2211.47 11 2212.67 13.85 2212.67 17.15V85.1C2212.67 88.4 2211.47 91.25 2209.07 93.65C2206.67 96.05 2203.82 97.25 2200.52 97.25H2119.07V227.75ZM2607.6 189.95C2607.6 235.85 2592.3 269.75 2561.7 291.65C2531.4 313.55 2490.9 324.5 2440.2 324.5C2389.5 324.5 2348.85 313.55 2318.25 291.65C2287.95 269.75 2272.8 235.55 2272.8 189.05V135.95C2272.8 105.35 2280 80 2294.4 59.9C2309.1 39.5 2329.05 24.5 2354.25 14.9C2379.45 5.29998 2408.1 0.499983 2440.2 0.499983C2472.3 0.499983 2500.8 5.29998 2525.7 14.9C2550.9 24.5 2570.85 39.35 2585.55 59.45C2600.25 79.55 2607.6 104.75 2607.6 135.05V189.95ZM2394.3 198.5C2394.3 210.8 2398.35 220.25 2406.45 226.85C2414.85 233.45 2426.1 236.75 2440.2 236.75C2454.3 236.75 2465.4 233.45 2473.5 226.85C2481.9 219.95 2486.1 210.35 2486.1 198.05V126.95C2486.1 114.65 2481.9 105.2 2473.5 98.6C2465.4 91.7 2454.3 88.25 2440.2 88.25C2426.1 88.25 2414.85 91.55 2406.45 98.15C2398.35 104.75 2394.3 114.2 2394.3 126.5V198.5ZM2963.37 4.99998C2966.67 4.99998 2969.52 6.19998 2971.92 8.59999C2974.32 11 2975.52 13.85 2975.52 17.15V307.85C2975.52 311.15 2974.32 314 2971.92 316.4C2969.52 318.8 2966.67 320 2963.37 320H2890.92C2883.72 320 2877.72 316.85 2872.92 310.55L2774.82 185.45V307.85C2774.82 311.15 2773.62 314 2771.22 316.4C2768.82 318.8 2765.97 320 2762.67 320H2678.97C2675.67 320 2672.82 318.8 2670.42 316.4C2668.02 314 2666.82 311.15 2666.82 307.85V17.15C2666.82 13.85 2668.02 11 2670.42 8.59999C2672.82 6.19998 2675.67 4.99998 2678.97 4.99998H2751.87C2759.07 4.99998 2764.92 7.99998 2769.42 14L2867.52 149.45V17.15C2867.52 13.85 2868.72 11 2871.12 8.59999C2873.52 6.19998 2876.37 4.99998 2879.67 4.99998H2963.37ZM3229.59 119.3C3262.59 122.9 3288.99 128.75 3308.79 136.85C3328.89 144.95 3343.44 155.6 3352.44 168.8C3361.44 182 3365.94 198.5 3365.94 218.3C3365.94 239.9 3358.89 258.8 3344.79 275C3330.99 290.9 3311.79 303.2 3287.19 311.9C3262.59 320.3 3234.54 324.5 3203.04 324.5C3167.94 324.5 3138.24 320.15 3113.94 311.45C3089.64 302.75 3071.49 291.2 3059.49 276.8C3047.49 262.1 3041.49 246.05 3041.49 228.65C3041.49 225.65 3042.39 223.25 3044.19 221.45C3046.29 219.65 3048.84 218.75 3051.84 218.75H3144.09C3150.39 218.75 3155.49 220.7 3159.39 224.6C3164.49 229.4 3170.19 232.7 3176.49 234.5C3182.79 236 3191.64 236.75 3203.04 236.75C3231.54 236.75 3245.79 232.4 3245.79 223.7C3245.79 220.1 3243.84 217.1 3239.94 214.7C3236.34 212 3229.74 209.75 3220.14 207.95C3210.84 205.85 3197.04 203.75 3178.74 201.65C3137.64 196.85 3106.14 186.65 3084.24 171.05C3062.34 155.15 3051.39 132.8 3051.39 104C3051.39 83.6 3057.54 65.6 3069.84 50C3082.14 34.4 3099.54 22.25 3122.04 13.55C3144.84 4.84998 3171.24 0.499983 3201.24 0.499983C3232.44 0.499983 3259.74 5.44998 3283.14 15.35C3306.54 24.95 3324.39 36.95 3336.69 51.35C3348.99 65.75 3355.14 79.85 3355.14 93.65C3355.14 96.65 3354.09 99.05 3351.99 100.85C3350.19 102.65 3347.64 103.55 3344.34 103.55H3247.59C3242.49 103.55 3237.84 101.75 3233.64 98.15C3230.34 95.15 3226.44 92.75 3221.94 90.95C3217.44 89.15 3210.54 88.25 3201.24 88.25C3181.14 88.25 3171.09 92.45 3171.09 100.85C3171.09 105.35 3174.99 108.95 3182.79 111.65C3190.59 114.05 3206.19 116.6 3229.59 119.3Z" fill="black"/>
</svg>

<svg xmlns="http://www.w3.org/2000/svg" viewBox="0 0 3366 325" fill="none" xmlns:v="https://vecta.io/nano"><path d="M298.35 5c3.3 0 6.15 1.2 8.55 3.6s3.6 5.25 3.6 8.55v68.4c0 3.3-1.2 6.15-3.6 8.55s-5.25 3.6-8.55 3.6H121.5v28.8h147.6c3.3 0 6.15 1.2 8.55 3.6s3.6 5.25 3.6 8.55v67.95c0 3.3-1.2 6.15-3.6 8.55s-5.25 3.6-8.55 3.6H121.5v89.1c0 3.3-1.2 6.15-3.6 8.55s-5.25 3.6-8.55 3.6h-97.2c-3.3 0-6.15-1.2-8.55-3.6S0 311.15 0 307.85V17.15C0 13.85 1.2 11 3.6 8.6S8.85 5 12.15 5h286.2zm408.874 301.05c.6 1.2.9 2.55.9 4.05 0 2.7-1.05 5.1-3.15 7.2-1.8 1.8-4.05 2.7-6.75 2.7h-102.15c-4.2 0-8.1-1.05-11.7-3.15-3.3-2.1-5.7-4.8-7.2-8.1l-39.6-89.1h-37.8v88.2c0 3.3-1.2 6.15-3.6 8.55s-5.25 3.6-8.55 3.6h-97.2c-3.3 0-6.15-1.2-8.55-3.6s-3.6-5.25-3.6-8.55V17.15c0-3.3 1.2-6.15 3.6-8.55s5.25-3.6 8.55-3.6h175.05c27 0 50.55 4.35 70.65 13.05 20.4 8.7 36 21.3 46.8 37.8s16.2 35.85 16.2 58.05c0 40.8-15.75 70.35-47.25 88.65l55.35 103.5zm-151.2-169.65c6.6 0 11.7-2.1 15.3-6.3 3.6-4.5 5.4-10.05 5.4-16.65s-1.8-12.3-5.4-17.1c-3.3-5.1-8.4-7.65-15.3-7.65h-56.25v47.7h56.25zm290.074 168.3c-3.9 10.2-10.65 15.3-20.25 15.3h-85.05c-2.7 0-5.1-.9-7.2-2.7-1.8-2.1-2.7-4.5-2.7-7.2l.45-2.7 98.1-287.55c1.2-3.9 3.45-7.35 6.75-10.35s7.8-4.5 13.5-4.5h125.1c5.7 0 10.2 1.5 13.5 4.5s5.55 6.45 6.75 10.35l98.102 287.55.45 2.7c0 2.7-1.05 5.1-3.15 7.2-1.8 1.8-4.05 2.7-6.75 2.7h-85.052c-9.6 0-16.35-5.1-20.25-15.3l-11.25-31.5h-109.8l-11.25 31.5zm66.15-212.85l-31.95 93.6h63.9l-31.95-93.6zM1251.82 198.5c0 12.3 4.05 21.75 12.15 28.35 8.4 6.6 19.65 9.9 33.75 9.9 12.6 0 21.9-2.1 27.9-6.3s11.1-10.5 15.3-18.9c3.9-7.8 9.15-11.7 15.75-11.7h97.2c2.7 0 4.95 1.05 6.75 3.15 2.1 1.8 3.15 4.05 3.15 6.75 0 18.3-6.15 36.3-18.45 54-12.3 17.4-31.05 31.95-56.25 43.65-24.9 11.4-55.35 17.1-91.35 17.1-32.1 0-60.75-4.8-85.95-14.4-24.9-9.9-44.7-24.9-59.4-45-14.7-20.4-22.05-45.75-22.05-76.05v-53.1c0-30.3 7.35-55.5 22.05-75.6 14.7-20.4 34.5-35.4 59.4-45 25.2-9.9 53.85-14.85 85.95-14.85 36 0 66.45 5.85 91.35 17.55 25.2 11.4 43.95 25.95 56.25 43.65 12.3 17.4 18.45 35.25 18.45 53.55 0 2.7-1.05 5.1-3.15 7.2-1.8 1.8-4.05 2.7-6.75 2.7h-97.2c-6.6 0-11.85-3.9-15.75-11.7-4.2-8.4-9.3-14.7-15.3-18.9s-15.3-6.3-27.9-6.3c-14.1 0-25.35 3.3-33.75 9.9-8.1 6.6-12.15 16.05-12.15 28.35v72zM1830.8 5c3.3 0 6.15 1.2 8.55 3.6s3.6 5.25 3.6 8.55V89.6c0 3.3-1.2 6.15-3.6 8.55s-5.25 3.6-8.55 3.6h-96.75v206.1c0 3.3-1.2 6.15-3.6 8.55s-5.25 3.6-8.55 3.6h-92.7c-3.3 0-6.15-1.2-8.55-3.6s-3.6-5.25-3.6-8.55v-206.1h-96.75c-3.3 0-6.15-1.2-8.55-3.6s-3.6-5.25-3.6-8.55V17.15c0-3.3 1.2-6.15 3.6-8.55S1517 5 1520.3 5h310.5zm288.27 222.75h81.45c3.3 0 6.15 1.2 8.55 3.6s3.6 5.25 3.6 8.55v67.95c0 3.3-1.2 6.15-3.6 8.55s-5.25 3.6-8.55 3.6h-285.3c-3.3 0-6.15-1.2-8.55-3.6s-3.6-5.25-3.6-8.55V239.9c0-3.3 1.2-6.15 3.6-8.55s5.25-3.6 8.55-3.6h82.35V97.25h-82.35c-3.3 0-6.15-1.2-8.55-3.6s-3.6-5.25-3.6-8.55V17.15c0-3.3 1.2-6.15 3.6-8.55s5.25-3.6 8.55-3.6h285.3c3.3 0 6.15 1.2 8.55 3.6s3.6 5.25 3.6 8.55V85.1c0 3.3-1.2 6.15-3.6 8.55s-5.25 3.6-8.55 3.6h-81.45v130.5zm488.53-37.8c0 45.9-15.3 79.8-45.9 101.7-30.3 21.9-70.8 32.85-121.5 32.85s-91.35-10.95-121.95-32.85c-30.3-21.9-45.45-56.1-45.45-102.6v-53.1c0-30.6 7.2-55.95 21.6-76.05 14.7-20.4 34.65-35.4 59.85-45S2408.1.5 2440.2.5s60.6 4.8 85.5 14.4c25.2 9.6 45.15 24.45 59.85 44.55s22.05 45.3 22.05 75.6v54.9zm-213.3 8.55c0 12.3 4.05 21.75 12.15 28.35 8.4 6.6 19.65 9.9 33.75 9.9s25.2-3.3 33.3-9.9c8.4-6.9 12.6-16.5 12.6-28.8v-71.1c0-12.3-4.2-21.75-12.6-28.35-8.1-6.9-19.2-10.35-33.3-10.35s-25.35 3.3-33.75 9.9c-8.1 6.6-12.15 16.05-12.15 28.35v72zM2963.37 5c3.3 0 6.15 1.2 8.55 3.6s3.6 5.25 3.6 8.55v290.7c0 3.3-1.2 6.15-3.6 8.55s-5.25 3.6-8.55 3.6h-72.45c-7.2 0-13.2-3.15-18-9.45l-98.1-125.1v122.4c0 3.3-1.2 6.15-3.6 8.55s-5.25 3.6-8.55 3.6h-83.7c-3.3 0-6.15-1.2-8.55-3.6s-3.6-5.25-3.6-8.55V17.15c0-3.3 1.2-6.15 3.6-8.55s5.25-3.6 8.55-3.6h72.9c7.2 0 13.05 3 17.55 9l98.1 135.45V17.15c0-3.3 1.2-6.15 3.6-8.55s5.25-3.6 8.55-3.6h83.7zm266.22 114.3c33 3.6 59.4 9.45 79.2 17.55 20.1 8.1 34.65 18.75 43.65 31.95s13.5 29.7 13.5 49.5c0 21.6-7.05 40.5-21.15 56.7-13.8 15.9-33 28.2-57.6 36.9-24.6 8.4-52.65 12.6-84.15 12.6-35.1 0-64.8-4.35-89.1-13.05s-42.45-20.25-54.45-34.65c-12-14.7-18-30.75-18-48.15 0-3 .9-5.4 2.7-7.2 2.1-1.8 4.65-2.7 7.65-2.7h92.25c6.3 0 11.4 1.95 15.3 5.85 5.1 4.8 10.8 8.1 17.1 9.9 6.3 1.5 15.15 2.25 26.55 2.25 28.5 0 42.75-4.35 42.75-13.05 0-3.6-1.95-6.6-5.85-9-3.6-2.7-10.2-4.95-19.8-6.75-9.3-2.1-23.1-4.2-41.4-6.3-41.1-4.8-72.6-15-94.5-30.6-21.9-15.9-32.85-38.25-32.85-67.05 0-20.4 6.15-38.4 18.45-54s29.7-27.75 52.2-36.45c22.8-8.7 49.2-13.05 79.2-13.05 31.2 0 58.5 4.95 81.9 14.85 23.4 9.6 41.25 21.6 53.55 36s18.45 28.5 18.45 42.3c0 3-1.05 5.4-3.15 7.2-1.8 1.8-4.35 2.7-7.65 2.7h-96.75c-5.1 0-9.75-1.8-13.95-5.4-3.3-3-7.2-5.4-11.7-7.2s-11.4-2.7-20.7-2.7c-20.1 0-30.15 4.2-30.15 12.6 0 4.5 3.9 8.1 11.7 10.8 7.8 2.4 23.4 4.95 46.8 7.65z" fill="#000"/></svg>
